src/img/arrows-fullscreen.svg

<svg xmlns="http://www.w3.org/2000/svg" width="16" height="16" fill="currentColor" class="bi bi-arrows-fullscreen" viewBox="0 0 16 16">
  <path fill-rule="evenodd" d="M5.828 10.172a.5.5 0 0 0-.707 0l-4.096 4.096V11.5a.5.5 0 0 0-1 0v3.975a.5.5 0 0 0 .5.5H4.5a.5.5 0 0 0 0-1H1.732l4.096-4.096a.5.5 0 0 0 0-.707zm4.344 0a.5.5 0 0 1 .707 0l4.096 4.096V11.5a.5.5 0 1 1 1 0v3.975a.5.5 0 0 1-.5.5H11.5a.5.5 0 0 1 0-1h2.768l-4.096-4.096a.5.5 0 0 1 0-.707zm0-4.344a.5.5 0 0 0 .707 0l4.096-4.096V4.5a.5.5 0 1 0 1 0V.525a.5.5 0 0 0-.5-.5H11.5a.5.5 0 0 0 0 1h2.768l-4.096 4.096a.5.5 0 0 0 0 .707zm-4.344 0a.5.5 0 0 1-.707 0L1.025 1.732V4.5a.5.5 0 0 1-1 0V.525a.5.5 0 0 1 .5-.5H4.5a.5.5 0 0 1 0 1H1.732l4.096 4.096a.5.5 0 0 1 0 .707z"/>
</svg>

<?xml version="1.0" encoding="utf-8"?>
<!-- Generator: Adobe Illustrator 22.0.0, SVG Export Plug-In . SVG Version: 6.00 Build 0)  -->
<svg version="1.1" id="Слой_1" xmlns="http://www.w3.org/2000/svg" xmlns:xlink="http://www.w3.org/1999/xlink" x="0px" y="0px"
	 viewBox="0 0 16 16" style="enable-background:new 0 0 16 16;" xml:space="preserve">
<style type="text/css">
	.st0{fill:#FFFFFF;}
</style>
<path class="st0" d="M5.8,10.2c-0.2-0.2-0.5-0.2-0.7,0L1,14.3v-2.8C1,11.2,0.8,11,0.5,11S0,11.2,0,11.5v4C0,15.8,0.2,16,0.5,16h4
	C4.8,16,5,15.8,5,15.5S4.8,15,4.5,15H1.7l4.1-4.1C6,10.7,6,10.4,5.8,10.2z M10.2,10.2c0.2-0.2,0.5-0.2,0.7,0l4.1,4.1v-2.8
	c0-0.3,0.2-0.5,0.5-0.5s0.5,0.2,0.5,0.5v4c0,0.3-0.2,0.5-0.5,0.5h-4c-0.3,0-0.5-0.2-0.5-0.5s0.2-0.5,0.5-0.5h2.8l-4.1-4.1
	C10,10.7,10,10.4,10.2,10.2z M10.2,5.8c0.2,0.2,0.5,0.2,0.7,0L15,1.7v2.8C15,4.8,15.2,5,15.5,5S16,4.8,16,4.5v-4
	C16,0.2,15.8,0,15.5,0h-4C11.2,0,11,0.2,11,0.5S11.2,1,11.5,1h2.8l-4.1,4.1C10,5.3,10,5.6,10.2,5.8z M5.8,5.8C5.6,6,5.3,6,5.1,5.8
	L1,1.7v2.8C1,4.8,0.8,5,0.5,5S0,4.8,0,4.5v-4C0,0.2,0.2,0,0.5,0h4C4.8,0,5,0.2,5,0.5S4.8,1,4.5,1H1.7l4.1,4.1C6,5.3,6,5.6,5.8,5.8z"
	/>
</svg>
